!!!OTL: Die elfjaehrige Markgraefin.
!!!OTL-incipit: Es hatte ein Markgraf ein Toechterlein;
!!!ARE: Europa, Mitteleuropa, Deutschland (BRD), Rheinpfalz
!!!YOR: 2, S. 279
!!    1909 gedruckt in Kaiserslautern
!!!SCT: Q0053A
!!!TXL: @@DE
!!!YEM: Copyright 1995, estate of Helmut Schaffrath.
**kern	**text
*ICvox	*
*M4/4	*
*met(c)	*
*k[]	*
*C:	*
{4g	1._Es
4cc	hat-
8cc	-te
8cc	ein
=1	=1
4g	Markgraf
8g	.
8f	ein
4e	Töch-
4d	-ter-
=2	=2
4c	-lein;
8r}	.
{8e	ſie
4e	wollten
8d	.
8e	ihr
=3	=3
4f	ge-
8eL	-ben
8fJ	.
(4g	ei-
8f)	-nen
8e	.
=4	=4
4d	Mann.
8r}	.
{8g	Sie
4g	wollten
8a	.
8a	ihr
=5	=5
4.a	ge-
8cc	-ben
4.b	ei-
8dd	-nen
=6	=6
4cc}	Mann,
{4g	Frau
4cc	Her-
8a	-ʒo-
8a	-gin
=7	=7
4g	ſollte
8a	.
8f	ſie
(4e	wer-
4d)	.
=8	=8
4c	-den.
8r}	.
{8g	Sie
4g	wollten
8a	.
8a	ihr
=9	=9
4.a	ge-
8cc	-ben
4.b	ei-
8dd	-nen
=10	=10
4cc}	Mann,
{4g	Frau
4cc	Her-
8a	-ʒo-
8a	-gin
=11	=11
4g	ſollte
8a	.
8f	ſie
(4e	wer-
4d)	.
=12	=12
4c}	-den.
==	==
!!!AGN: Ballade, Braut - Werbung, Hochzeit, Minderjaehrige, Tod
!!!ONB: ESAC (Essen Associative Code) Database: BALLADE
!!!AMT: simple quadruple
!!!AIN: vox
!!!EED: Helmut Schaffrath
!!!EEV: 1.0
!!@@COMMENT:"Hee. -Wü. Nr. 36."
!!@@END:
!!!source: Deutsche Volkslieder mit ihren Melodien. Herausgegeben vom Deutschen Volksliedarchiv. Zweiter Band Balladen. Berlin 1939.
!!!page: 279
!!!ENC: Anna Maria Matuszewska
!!!EEV: 2025/02/17
*-	*-
